X: 81
T: Sugar In The Gourd
B: canberra pickers and fiddlers
B: old time tunes update
B: tunes
M:2/4
L:1/8
R: Reel
Q: 1/4=100
K:A
V:1 
"A"a/b/a/e/ f/e/c/d/|"A"e/f/e/c/ "E7"BA/B/|"A"c/B/A/c/ B/A/F/D/|"E7"E/F/A/B/ "A"A:|
|:c/B/|"A"A/F/E/C/ A,/B,/C/D/|E/F/A/c/ "E7"Bc/B/|"A"A/F/E/C/ A,/B,/C/D/|"E7"E/F/A/B/ "A"Ac/B/|
"A"A/F/E/C/ A,/B,/C/D/|E/F/A/c/ "E7"BA/c/|"A"e/c/A/c/ B/A/F/D/|"E7"E/F/A/B/ "A"A:|
[Ae][Be]|[c/e/][ee][e/f/] [ee][e/e/][e/d/]|[c/e/][d/e/][e/e/][e/f/] [ee]a/g/|"D"f/d/f/g/ a/f/d/A/|"A"[c/e/][d/e/][e/e/][e/f/] [ee]f/g/|
"A"a/b/a/e/ f/e/c/d/|e/f/e/[c/e/]| "E7"[Be][A/e/][B/e/]|"A"[c/e/][B/e/][A/e/][c/e/] [B/e/][A/e/][F/A/][D/A/]|"E7"[E/A/][F/A/][A/e/][B/e/] "A"[Ae]:|
|:[c/e/][B/e/]|"A"[A/e/][F/A/][E/A/][C/E/] [A,/E/][B,/E/][C/E/][D/A/]|[E/A/][F/A/][A/e/][c/e/] "E7"[Be][c/e/][B/e/]|"A"[A/e/][F/A/][E/A/][C/E/] [A,/E/][B,/E/][C/E/][D/A/]|"E7"[E/A/][F/A/][A/e/][B/e/] "A"[Ae][c/e/][B/e/]|
"A"[A/e/][F/A/][E/A/][C/E/] [A,/E/][B,/E/][C/E/][D/A/]|[E/A/][F/A/][A/e/][c/e/] "E7"[Be][A/e/][c/e/]|"A"[e/e/][c/e/][A/e/][c/e/] [B/e/][A/e/][F/A/][D/A/]|"E7"[E/A/][F/A/][A/e/][B/e/] "A"[Ae]:|
% abcbook-tune_id 67a7d9eca055ac3a3c0f22dd
% abcbook-tune_composer_id 
% abcbook-link-0 https://www.youtube.com/watch?v=ZeqiVxy19k4
% abcbook-link-title-0 Sugar in the Gourd - Jesse Milnes and Augusta Old Time Week Staff
% abcbook-link-start-at-0 8
% abcbook-boost 0
% abcbook-difficulty 0
% abcbook-tags old time tunes
% abcbook-tablature 
% abcbook-transpose 
% abcbook-tuning AEAE
% abcbook-lastupdated 1739172355984
% abcbook-src-url 
% abcbook-soundfonts 
% abcbook-repeats 1


